X:2335
L:1/8
M:3/4
K:D
 DE |: F2 F2 FE | F2 F2 FE | F2 A2 AB | AF ED DE | F2 d2 Bd | A3 F DE |1 F4 GF | E4 DE :|2 
 F2 F2 E2 | D4 (3ABd |: d2 d3 e | dc BA Bc | d3 B AF | D4 d2 | e2 e2 f2 | e3 d ed | f3 a fe | 
 dc BA Bc | d3 c de | dc BA Bc | d3 B AF | D4 DE | F2 d2 Bd | A3 F DE | F2 F2 E2 |1 D4 (3ABc :|

